# Rondo Veneziano's La serenissima

# WORK IN PROGRESS - this is transcribed from MIDI file and I didn't get timing right yet

(tempo! 124)

oboe: o4
# tri kousky
f2. e16 f g a
e2. e16 f g a
d2. >e16 f g a # prerusena
# to samy, o oktavu vyse
f2. e16 f g a
e2. e16 f g a
d2. e16 f g a
# to samy
f2. e16 f g a
e2. e16 f g a
d2. e16 f g a
# and so on and so forth
