# short melody from song "Verunčina píseň lásky" by Ivan Hlas
# (as seen in fairy-tale movie "Jak si zasloužit princeznu" and this clip - https://www.youtube.com/watch?v=OzziTUZC9dg)

(tempo! 129)

guitar: 

d4. d4 c+8 < b4
g4. g4 a8 b4
f+4. > d4 < r8 
f+4. > d4 r8
